!!!id: 16xx:1159
!!!COM: Różycki, Jacek
!!!OTL: Martinae celebri plaudite
!!!PDT:
!!!SMS-siglum: PL-Kk
!!!SMS-shelfmark: Kk.I.8
!!!NIFC-rismID: 1001148870
!!!URL-scan: http://repozytorium.nifc.pl/skany/pl-kk-nut--i-8
!!!ONB-nifc: UWAGA: A (skan 0010), T1 (0034), T2 (0057), B (0080). Następny utwór: Deus tuorum militum
!!!SMS-variant:
!!!SMS-altvar:
**kern	**fba	**text	**text	**text	**text	**text	**text	**text	**text	**kern	**text	**text	**text	**text	**text	**text	**text	**text	**kern	**text	**text	**text	**text	**text	**text	**text	**text	**kern	**text	**text	**text	**text
*part4	*	*part4	*part4	*part4	*part4	*part4	*part4	*part4	*part4	*part3	*part3	*part3	*part3	*part3	*part3	*part3	*part3	*part3	*part2	*part2	*part2	*part2	*part2	*part2	*part2	*part2	*part2	*part1	*part1	*part1	*part1	*part1
*staff4	*	*staff4	*staff4	*staff4	*staff4	*staff4	*staff4	*staff4	*staff4	*staff3	*staff3	*staff3	*staff3	*staff3	*staff3	*staff3	*staff3	*staff3	*staff2	*staff2	*staff2	*staff2	*staff2	*staff2	*staff2	*staff2	*staff2	*staff1	*staff1	*staff1	*staff1	*staff1
*I"[BASSVS.]	*	*	*	*	*	*	*	*	*	*I"[TENOR 2dus.]	*	*	*	*	*	*	*	*	*I"[Tenore 1mo]	*	*	*	*	*	*	*	*	*I"[alto.]	*	*	*	*
*I'B	*	*	*	*	*	*	*	*	*	*I'T 2	*	*	*	*	*	*	*	*	*I'T 1	*	*	*	*	*	*	*	*	*I'A	*	*	*	*
*clefF4	*	*	*	*	*	*	*	*	*	*clefC4	*	*	*	*	*	*	*	*	*clefC1	*	*	*	*	*	*	*	*	*clefC3	*	*	*	*
*k[]	*	*	*	*	*	*	*	*	*	*k[]	*	*	*	*	*	*	*	*	*k[]	*	*	*	*	*	*	*	*	*k[]	*	*	*	*
*M3/1	*	*	*	*	*	*	*	*	*	*M3/1	*	*	*	*	*	*	*	*	*M3/1	*	*	*	*	*	*	*	*	*M3/1	*	*	*	*
=1	=1	=1	=1	=1	=1	=1	=1	=1	=1	=1	=1	=1	=1	=1	=1	=1	=1	=1	=1	=1	=1	=1	=1	=1	=1	=1	=1	=1	=1	=1	=1	=1
!LO:TX:t=P:problem:niektóre z akcydencji są oznaczeniami bc, pozostałe transkrybuję zwyczajnie	!	!	!	!	!	!	!	!	!	!	!	!	!	!	!	!	!	!	!	!	!	!	!	!	!	!	!	!	!	!	!	!
1E	n	Mar-	Haec	Vi-	Non	Quin	Te	Tu	Et	1Gn	Mar-	Haec	Vi-	Non	Quin	Te	Tu	Et	1b	Mar-	Haec	Vi-	Non	Quin	Te	Tu	Et	1e	1.Mar-	2.Haec	4.Non	3.Vi-
1AA	.	-ti-	dum	-tae	il-	êt	thu-	Na-	re-	1A	-ti-	dum	-tae	il-	et	thu-	Na-	Re-	1cc	-ti-	dum	-tae	il-	et	thu-	Na-	re-	1e	-ti-	dum	il-	-tae
!	!	!	!	!	!	!	!	!	!	!LO:TX:t=P:problem:# above	!	!	!	!	!	!	!	!	!	!	!	!	!	!	!	!	!	!	!	!	!	!
1D	#	-nae	Con-	deſ-	-lam	de-	-ris	-ta-	-gu(m)	1F#X	-nae	con-	des-	-lam	dê-	-ris	-ta-	-gu(m)	1a	-nae	Con-	deſ-	-la(m)	de-	-riſ	-ta-	-gu(m)	1d	-nae	con-	-lam	deſ-
=2	=2	=2	=2	=2	=2	=2	=2	=2	=2	=2	=2	=2	=2	=2	=2	=2	=2	=2	=2	=2	=2	=2	=2	=2	=2	=2	=2	=2	=2	=2	=2	=2
1.GG	.	Ce-	-spi-	-pi-	Cru-	-po-	re-	-le	So-	1.G	ce-	-ſpi-	-pi-	cru-	-po-	re-	-le	So-	1.b	ce-	-ſpi-	-pi-	Cru-	-po-	re-	-le	So-	1.d	ce-	-ſpi-	cru-	-pi-
2GG/	.	-le-	-cu-	-ci-	-ci-	-si-	-do-	So-	-ci-	2G/	-le-	-cu-	-ci-	-ci-	-si-	-do-	So-	-ci-	2b\	-le-	-cu-	-ci-	-ci-	-si-	-do-	So-	-ci-	2d\	-le-	-cu-	-ci-	-ci-
1GG	.	-bri	-is	-ens	-anſ	-ta	-lens	-lu(m)	-ans	1G	-bri	-is	-ens	-ans	-ta	-lens	-lu(m)	-ans	1b	-bri	-is	-ens	-ans	-ta	-lens	-lu(m)	-ans	1d,<	-bri	-is	-ans	-ens
=3	=3	=3	=3	=3	=3	=3	=3	=3	=3	=3	=3	=3	=3	=3	=3	=3	=3	=3	=3	=3	=3	=3	=3	=3	=3	=3	=3	=3	=3	=3	=3	=3
!	!	!	!	!	!	!	!	!	!	!	!	!	!	!	!	!	!	!	!	!	!	!	!	!	!	!	!	!	!	!	!	!
1.D	#	plau-	or-	com-	Un-	Sae-	a-	pro-	ag-	(>2F#X/	plau-	or-	com-	Un-	Sae-	a-	pro-	ag-	1.a	plau-	or-	Com-	Vn-	Sae-	a-	pro-	ag-	1.d	plau-	or-	un-	com-
.	.	.	.	.	.	.	.	.	.	2D/)	.	.	.	.	.	.	.	.	.	.	.	.	.	.	.	.	.	.	.	.	.	.
.	.	.	.	.	.	.	.	.	.	2.d\	-di-	-ta	-mo-	-gu-	-vi-	-ra	-tê-	-mi-	.	.	.	.	.	.	.	.	.	.	.	.	.	.
!	!	!	!	!	!	!	!	!	!	!	!	!	!	!	!	!	!	!	!	!	!	!	!	!	!	!	!	!LO:TX:t=P:problem:# above	!	!	!	!
2D/	.	-di-	-ta	-mo-	-gu-	-vi-	-ra	-te-	-mi-	.	.	.	.	.	.	.	.	.	2a\	-di-	-ta	-mo-	-gu-	-vi-	-ra	-te-	-mi-	2f#X\	-di-	-ta	-gu-	-mo-
.	.	.	.	.	.	.	.	.	.	4c\	.	.	.	.	.	.	.	.	.	.	.	.	.	.	.	.	.	.	.	.	.	.
1E	.	-te	pa-	-da	-la	-ti-	Va-	-ge	-na	1B	-te	pa-	-da	-la	-ti-	Va-	-ge	-na	1g	-te	pa-	-da	-la	-ti-	va-	-ge	-na	1e	-te	Pa-	-la	-da,.
=4	=4	=4	=4	=4	=4	=4	=4	=4	=4	=4	=4	=4	=4	=4	=4	=4	=4	=4	=4	=4	=4	=4	=4	=4	=4	=4	=4	=4	=4	=4	=4	=4
!	!	!	!	!	!	!	!	!	!	!	!	!	!	!	!	!	!	!	!	!	!	!	!	!	!	!	!	!LO:SIC:l:v:s=dé:verse4	!	!	!	!
!	!	!	!	!	!	!	!	!	!	!	!	!	!	!	!	!	!	!	!	!	!	!	!	!	!	!	!	!LO:SIC:l:v:s=non:verse3	!	!	!	!
1.BB	#	No-	-rên-	de-	non	-e	-po-	Tu	Sub	1.B	No-	-rên-	de-	non	-e	-po-	Tu	Sub	1.f#X	no-	-ren-	de-	non	-e	-po-	Tu	Sub	1.d#X	no-	-ren-	nec	D.é-
2BB/	.	-mi-	-ti-	-di-	fe-	Le-	-ri-	bo-	Cru-	2B\	-mi-	-ti-	-di-	fe-	Le-	-ri-	bo-	Cru-	2f#/	-mi-	-ti-	-di-	fe-	Le-	-ri-	bo-	Cru-	2d#\	-mi-	-ti-	fe-	-di-
1BB	.	-ni	-b(us)	-cat	-rae	-o	-b(us)	-nae	-cis	1B	-ni	-b(us)	-cat	-rae	-o	-b(us)	-nae	-cis	1f#	-ni	-b(us)	-cat	-rae	-o	-b(us)	-nae	-cis	1d#	-ni,	-b(us),	-rae,	-cat
=5	=5	=5	=5	=5	=5	=5	=5	=5	=5	=5	=5	=5	=5	=5	=5	=5	=5	=5	=5	=5	=5	=5	=5	=5	=5	=5	=5	=5	=5	=5	=5	=5
!	!	!	!	!	!	!	!	!	!	!	!	!	!	!	!	!	!	!	!	!	!	!	!	!	!	!	!	!	!	!	!	!
1E	.	Ci-	in-	ſe	Non	Se	qvae	da	Ve-	1B	Ci-	in-	Se	non	Se	qvae	da	Ve-	1g	Ci-	in-	Se	non	Se	qvae	da	Vê-	1e	Ci-	in-	non	se
!	!	!	!	!	!	!	!	!	!	!	!	!	!	!	!	!	!	!	!	!	!	!	!	!	!	!	!	!LO:TX:t=P:problem:# above	!	!	!	!
1D	.	-ves	-têr	re-	Vir-	ric-	fu-	pa-	-xil-	1d	-vês	-ter	re-	Vir-	ric-	fu-	pa-	-xil-	1a	-vês	-ter	re-	Vir-	ric-	fu-	pa-	-xil-	1f#X	-ves	-ter	Vir-	to-
!	!	!	!	!	!	!	!	!	!	!	!	!	!	!	!	!	!	!	!	!	!	!	!	!	!	!	!	!LO:TX:t=P:problem:w 4 wersie elizja	!	!	!	!
!LO:TX:t=P:problem:w 4 wersie elizja	!	!	!	!	!	!	!	!	!	!LO:TX:t=P:problem:w 4 wersie elizja	!	!	!	!	!	!	!	!	!LO:TX:t=P:problem:w 4 wersie elizja	!	!	!	!	!	!	!	!	!LO:TX:t=P:problem:# above	!	!	!	!
1BB	6|	Ro-	de-	-ru(m)	-ga_hor-	-tu	-mat	-cis	-lo	1d	Ro-	de-	-ru(m)	-ga_hor-	-tu	-mat	-cis	-lo	1b	Ro-	de-	-ru(m)	-ga_hor-	-tu	-mat	-cis	-lo	1g#X	Ro-	de-	-ga_hor-	-tam
=6	=6	=6	=6	=6	=6	=6	=6	=6	=6	=6	=6	=6	=6	=6	=6	=6	=6	=6	=6	=6	=6	=6	=6	=6	=6	=6	=6	=6	=6	=6	=6	=6
1.AA	.	-mu-	-li-	Do-	-ri-	pla-	pre-	re-	So-	1.e	-mu-	-li-	D(o-	-ri-	pla-	pre-	re-	So-	1.cc	-mu-	-li-	D(o-	-ri-	pla-	prê-	re-	So-	1.a	-mu-	-li-	-ri-	Do-
!	!	!	!	!	!	!	!	!	!	!	!	!	!	!	!	!	!	!	!	!	!	!	!	!	!	!	!	!	!	!	!	!
2AA/	.	-le-	-ci-	-mi-	-bi-	-ci-	-ci-	-qvi-	-ly-	2e\	-le-	-ci-	-mi)-	-bi-	-ci-	-ci-	-qvi-	-ly-	2cc\	-le-	-ci-	-mi)-	-bi-	-ci-	-ci-	-qvi-	-ly-	2a\	-le-	-ci-	-bi-	-mi-
1AA	.	-i	-as	-no	-li	-do	-b(us)	-e(m)	-mas	1e	-i	-as	-no	-li	-do	-b(us)	-e(m)	-mas	1cc	-i	-as	-no	-li	-do	-b(us)	-em	-mas	1a	-i	-as,	-li	-no
=7	=7	=7	=7	=7	=7	=7	=7	=7	=7	=7	=7	=7	=7	=7	=7	=7	=7	=7	=7	=7	=7	=7	=7	=7	=7	=7	=7	=7	=7	=7	=7	=7
!LO:SIC:l:v:s=pro:verse5	!	!	!	!	!	!	!	!	!	!	!	!	!	!	!	!	!	!	!	!	!	!	!	!	!	!	!	!	!	!	!	!
1.F	#	plau-	in-	Mu-	Vul-	po-	ju-	Chri-	nê-	1.fn	plau-	in-	Mu-	Vul-	pro-	iu-	Chri-	nê-	1.cc	plau-	in-	Mu-	Vul-	pro-	ju-	Chri-	ne-	1.a	plau-	in-	Vul-	mu-
!LO:SIC:l:v:s=ji:verse5	!	!	!	!	!	!	!	!	!	!LO:SIC:l:v:s=ji:verse5	!	!	!	!	!	!	!	!	!LO:SIC:l:v:s=ji:verse5	!	!	!	!	!	!	!	!	!	!	!	!	!
2F\	.	-di-	-ter	-ni-	-ne-	-ij-	-gi-	-sti-	-xi-	2f\	-di-	-ter	-ni-	-ne-	-ij-	-gi-	-sti-	-xi-	2cc\	-di-	-ter	-ni-	-ne-	-ij-	-gi-	-sti-	-xi-	2a\	-di-	-ter	-ne-	-ni-
1D	.	-te	a-	-fi-	-re	-cit	-ter	-a-	-bus	1f	-te	a-	-fi-	-re	-cit	-ter	-a-	-b(us)	1dd	-te	a-	-fi-	-re	-cit	-ter	-a-	-b(us)	1a	-te	a-	-re	-fi-
=8	=8	=8	=8	=8	=8	=8	=8	=8	=8	=8	=8	=8	=8	=8	=8	=8	=8	=8	=8	=8	=8	=8	=8	=8	=8	=8	=8	=8	=8	=8	=8	=8
1.E	.	glo-	-ma-	-ca	com-	ad	in-	-dum	e-	1.e	glo-	-ma-	-ca	Com-	ad	in-	-du(m)	e-	1.b	glo-	-ma-	-ca	Com-	ad	in-	-du(m)	e-	1.g#X	glo-	-ma-	com-	-câ
2E\	.	-ri-	-bi-	ma-	-mo-	pe-	-vo-	pla-	-xi-	2e\	-ri-	-bi-	ma-	-mo-	pe-	-vo-	pla-	-xi-	2b\	-ri-	-bi-	ma-	-mo-	pe-	-vo-	pla-	-xi-	2g#\	-ri-	-bi-	-mo-	ma-
1E,<	.	-ae	-les	-nu	-vênt	-des	-cat	-gis	-me	1B	-ae	-les	-nu	-vêt.	-des,	-cat	-gis	-me	1b	-ae	-les	-nu	-vêt	-des	-cat	-gis	-me	1g#	-ae,	-les	-vet,	-nu
=9	=9	=9	=9	=9	=9	=9	=9	=9	=9	=9	=9	=9	=9	=9	=9	=9	=9	=9	=9	=9	=9	=9	=9	=9	=9	=9	=9	=9	=9	=9	=9	=9
!	!	!	!	!	!	!	!	!	!	!	!	!	!	!	!	!	!	!	!	!	!	!	!	!	!	!	!	!LO:N:acc=-	!	!	!	!
1C	.	in-	lu-	Chri-	Hinc	Te	Et	ar-	Vin-	1c	In-	lu-	Chri-	Hinc	Te	Et	ar-	Vin-	1ee	In-	lu-	X-	Hinc	Te	êt	ar-	Vin-	1gn	in-	lu-	hinc	Chri-
1G	.	-ſig-	-xus	-ſti	lap-	Mar-	fal-	-mo-	-dex-	1B	-ſig-	-x(us)	-ſti	lap-	Mar-	fal-	-mo-	-dex-	1dd	-ſig-	-x(us)	-i	lap-	Mar-	fal-	-mo-	-dêx-	1.g	-sig-	-xus	lap-	-ſti
!LO:TX:t=P:problem:w 4 i 8 wersie elizja	!	!	!	!	!	!	!	!	!	!LO:TX:t=P:problem:w 4 i 8 wersie elizja	!	!	!	!	!	!	!	!	!LO:TX:t=P:problem:w 4 i 8 wersie elizja	!	!	!	!	!	!	!	!	!	!	!	!	!
1A	.	-ne(m)	il-	pau-	-Si_e	-ti-	-sum	-ru(m)	-q(ue)_in-	1A	-ne(m)	il-	pau-	-Si_è	-ti-	-ſu(m)	-ru(m)	-q(ue)_in-	1cc	-ne(m)	il-	pau-	-Si_ê	-ti-	-ſu(m)	-ru(m)	-q(ue)_in-	.	.	.	.	.
!	!	!	!	!	!	!	!	!	!	!	!	!	!	!	!	!	!	!	!	!	!	!	!	!	!	!	!	!LO:TX:t=P:problem:w 4 i 8 wersie elizja	!	!	!	!
!	!	!	!	!	!	!	!	!	!	!	!	!	!	!	!	!	!	!	!	!	!	!	!	!	!	!	!	!LO:TX:t=P:problem:# below	!	!	!	!
.	.	.	.	.	.	.	.	.	.	.	.	.	.	.	.	.	.	.	.	.	.	.	.	.	.	.	.	2f#X\	-nem	il-	-si_è	pau-
=10	=10	=10	=10	=10	=10	=10	=10	=10	=10	=10	=10	=10	=10	=10	=10	=10	=10	=10	=10	=10	=10	=10	=10	=10	=10	=10	=10	=10	=10	=10	=10	=10
1.G	.	me-	-le-	-pe-	Su-	-na	pe-	Stre-	-no-	1.d	me-	-le-	-pe-	Su-	-na	pe-	Stre-	-no-	1.b	Me-	-le-	-pe-	Su-	-na	pe-	Stre-	-no-	1.g	me-	-le-	Su-	-pe-
2G\	.	-ri-	-ce-	-ri-	-per-	ta-	-ri-	-pit-	-cu-	2d\	-ri-	-ceb-	-ri-	-pe-	ta-	-ri-	-pit-	-cu-	2b\	-ri-	-ceb-	-ri-	-pè-	ta-	-ri-	-pit-	-cu-	2g\	-ri-	-ceb-	-pe-	-ri-
1G	.	-tis	-bras	-b(us)	-ru(m)	-men	-mens	-(us)	-i	1d	-tis	-ras	-b(us)	-ru(m)	-men	-mens	-(us)	-i	1b	-tis	-ras	-b(us)	-ru(m)	-men	-menſ	-(us)	-i	1g	-tis	-ras,	-rum	-b(us)
=11	=11	=11	=11	=11	=11	=11	=11	=11	=11	=11	=11	=11	=11	=11	=11	=11	=11	=11	=11	=11	=11	=11	=11	=11	=11	=11	=11	=11	=11	=11	=11	=11
!LO:TX:t=P:problem:♯above	!	!	!	!	!	!	!	!	!	!	!	!	!	!	!	!	!	!	!	!	!	!	!	!	!	!	!	!	!	!	!	!
1F#	.	di-	di-	diſ-	Se-	dans	auſ-	et	San-	1d	di-	di-	diſ-	Sae-	dans	auſ-	et	San-	1a	di-	di-	diſ-	Sê-	dans	aus-	êt	San-	1d	di-	di-	se-	diſ-
!	!	!	!	!	!	!	!	!	!	!	!	!	!	!	!	!	!	!	!	!	!	!	!	!	!	!	!	!	!	!	!	!
1G	6 5	-ci-	-ti-	-tri-	-di-	gla-	-pi-	fê-	-gvi-	1B	-ci-	-ti-	-tri-	-di-	gla-	-pi-	fe-	-gvi-	1b	-ci-	-ti-	-tri-	-di-	gla-	-pi-	fe-	-gvi-	1d	-ci-	-ti-	-di-	-tri-
!	!	!	!	!	!	!	!	!	!	!	!	!	!	!	!	!	!	!	!	!	!	!	!	!	!	!	!	!LO:TX:t=P:problem:# above	!	!	!	!
1A	#	-te	-b(us)	-bu-	-b(us)	-di-	-ci-	-ra	-nis	1A	-te	-b(us)	-bu-	-b(us)	-di-	-ci-	-ra	-nis	1e	-te	-b(us)	-bu-	-b(us)	-di-	-ci-	-ra	-nis	1c#X	-te	-bus	-b(us)	-bu-
=12	=12	=12	=12	=12	=12	=12	=12	=12	=12	=12	=12	=12	=12	=12	=12	=12	=12	=12	=12	=12	=12	=12	=12	=12	=12	=12	=12	=12	=12	=12	=12	=12
1.D	.	Vir-	af-	-is	An-	-(us)	-u(m)	prae-	Hoſ-	1.A	Vir-	af-	-is	an-	-(us)	-u(m)	prae-	hoſ-	1.f#X	Vir-	af-	-it	An-	-us	-u(m)	prae-	hos-	1.d	Vir-	af-	an-	-it
2D/	.	-gi-	-flu-	o-	-ge-	Ne-	tu-	-li-	-ti-	2A/	-gi-	-flu-	o-	-ge-	Ne-	tu-	-li-	-ti-	2f#/	-gi-	-flu-	o-	-ge-	Nê-	tu-	-li-	-ti-	2d\	-gi-	-flu-	-ge-	o-
1D	.	-ne(m)	-it	-pes	-li	-ci	-i	-a	-cu(m)	1A	-ne(m)	-it	-pes	-li	-ci	-i	-a	-cu(m)	1f#	-ne(m)	-it	-pes	-li	-ci	-i	-a	-cu(m)	1d	-nem	-it	-li,	-pes,
=13	=13	=13	=13	=13	=13	=13	=13	=13	=13	=13	=13	=13	=13	=13	=13	=13	=13	=13	=13	=13	=13	=13	=13	=13	=13	=13	=13	=13	=13	=13	=13	=13
1r	.	.	.	.	.	.	.	.	.	1r	.	.	.	.	.	.	.	.	1r	.	.	.	.	.	.	.	.	1r	.	.	.	.
!	!	!	!	!	!	!	!	!	!	!	!	!	!	!	!	!	!	!	!	!	!	!	!	!	!	!	!	!	!	!	!	!
1BB	.	Chri-	faus-	qvae-	Cae-	Cae-	de-	in	ro-	1B	Chri-	faus-	qvae-	Cae-	Cae-	de-	in	ro-	1dd	Chri-	faus-	qvae-	cae-	Cae-	de-	in	ro-	1f#X	Chri-	faus-	cae-	quae-
!LO:TX:t=P:problem:# above	!	!	!	!	!	!	!	!	!	!	!	!	!	!	!	!	!	!	!LO:TX:t=P:problem:# above	!	!	!	!	!	!	!	!	!	!	!	!	!
1F#X	.	-ſti	-tae	-rit	-leſ-	-li	-lêt	fi-	-bur	1A	-ſti	-tae	-rit	-leſ-	-li	-lens	fi-	-bur	1cc#X	-ſti	-tae	-rit	-les-	-li	-let	fi-	-bur	1f#	-sti	-tae	-leſ-	-rit
=14	=14	=14	=14	=14	=14	=14	=14	=14	=14	=14	=14	=14	=14	=14	=14	=14	=14	=14	=14	=14	=14	=14	=14	=14	=14	=14	=14	=14	=14	=14	=14	=14
1.G	.	di-	mune-	prae-	-ti	ſê-	no-	-nes	fun-	1.d	di-	mune-	prae-	-ti	ſe-	no-	-neS	fun-	1.b	di-	mune-	prae-	-ti	ſe-	No-	-nes	fun-	(2d\	di-	mu-	-ti	prae-
.	.	.	.	.	.	.	.	.	.	.	.	.	.	.	.	.	.	.	.	.	.	.	.	.	.	.	.	4e\	.	.	.	.
!	!	!	!	!	!	!	!	!	!	!	!	!	!	!	!	!	!	!	!	!	!	!	!	!	!	!	!	!LO:SIC:v:s=4f#	!	!	!	!
.	.	.	.	.	.	.	.	.	.	.	.	.	.	.	.	.	.	.	.	.	.	.	.	.	.	.	.	4f\)	.	.	.	.
.	.	.	.	.	.	.	.	.	.	.	.	.	.	.	.	.	.	.	.	.	.	.	.	.	.	.	.	2.g\	.	-ne-	da-	.
2G\	.	-ci-	-ri-	-mi-	da-	-di-	-mi-	a-	-di-	2d\	-ci-	-ri-	-mi-	da-	-di-	-mi-	a-	-di-	2b\	-ci-	-ri-	-mi-	da-	-di-	-mi-	a-	-di-	.	.	.	.	.
.	.	.	.	.	.	.	.	.	.	.	.	.	.	.	.	.	.	.	.	.	.	.	.	.	.	.	.	4g\	-ci-	-ri-	.	-mi-
!	!	!	!	!	!	!	!	!	!	!	!	!	!	!	!	!	!	!	!	!	!	!	!	!	!	!	!	!LO:TX:t=P:problem:# above	!	!	!	!
1D	.	-te	-b(us)	-a	-pe	-b(us)	-nis	-ge	-t(us)	1d	-te	-b(us)	-a	-pe	-b(us)	-nis	-ge,	-t(us)	1a	-te	-b(us)	-a	-pe	-b(us)	-nis	-ge	-t(us)	1f#X	-te	-b(us)	-pe,	-a
=15	=15	=15	=15	=15	=15	=15	=15	=15	=15	=15	=15	=15	=15	=15	=15	=15	=15	=15	=15	=15	=15	=15	=15	=15	=15	=15	=15	=15	=15	=15	=15	=15
1r	.	.	.	.	.	.	.	.	.	1r	.	.	.	.	.	.	.	.	1r	.	.	.	.	.	.	.	.	1r	.	.	.	.
!	!	!	!	!	!	!	!	!	!	!	!	!	!	!	!	!	!	!	!	!	!	!	!	!	!	!	!	!	!	!	!	!
!	!	!	!	!	!	!	!	!	!	!	!	!	!	!	!	!	!	!	!LO:TX:t=P:problem:♮ above	!	!	!	!	!	!	!	!	!	!	!	!	!
*	*	*ij	*ij	*ij	*ij	*ij	*ij	*ij	*ij	*	*ij	*ij	*ij	*ij	*ij	*ij	*ij	*ij	*	*ij	*ij	*ij	*ij	*ij	*ij	*ij	*ij	*	*	*	*	*
1AA	.	Chri-	faus-	qvae-	Cae-	Cae-	de-	in	ro-	1e	Chri-	faus-	qvae-	Cae-	Cae-	de-	in	ro-	1ccn	Chri-	faus-	qvae-	cae-	Cae-	de-	in	ro-	1a	Chri-	faus-	cae-	quae-
1E	.	-ſti	-tae	-rit	-leſ-	-li	-lêt	fi-	-bur	1e	-ſti	-tae	-rit	-leſ-	-li	-lens	fi-	-bur	1b	-ſti	-tae	-rit	-les-	-li	-let	fi-	-bur	1g	-sti	-tae	-leſ-	-rit
=16	=16	=16	=16	=16	=16	=16	=16	=16	=16	=16	=16	=16	=16	=16	=16	=16	=16	=16	=16	=16	=16	=16	=16	=16	=16	=16	=16	=16	=16	=16	=16	=16
!LO:TX:t=P:problem:# above	!	!	!	!	!	!	!	!	!	!	!	!	!	!	!	!	!	!	!	!	!	!	!	!	!	!	!	!LO:TX:t=P:problem:# above	!	!	!	!
1.F#X	.	di-	mune-	prae-	-ti	ſê-	no-	-nes	fun-	1.c	di-	mune-	prae-	-ti	ſe-	no-	-neS	fun-	1.a	di-	mune-	prae-	-ti	ſe-	No-	-nes	fun-	1.f#X	di-	mune-	-ti	prae-
2F#\	.	-ci-	-ri-	-mi-	da-	-di-	-mi-	a-	-di-	2c\	-ci-	-ri-	-mi-	da-	-di-	-mi-	a-	-di-	2a\	-ci-	-ri-	-mi-	da-	-di-	-mi-	a-	-di-	2f#\	-ci-	-ri-	da-	-mi-
1G	.	-te	-b(us)	-a	-pe	-b(us)	-nis	-ge	-t(us)	1B	-te	-b(us)	-a	-pe	-b(us)	-nis	-ge,	-t(us)/	1g	-te	-b(us)	-a	-pe	-b(us)	-nis	-ge	-t(us)	1e	-te	-b(us)	-pe,	-a
=17	=17	=17	=17	=17	=17	=17	=17	=17	=17	=17	=17	=17	=17	=17	=17	=17	=17	=17	=17	=17	=17	=17	=17	=17	=17	=17	=17	=17	=17	=17	=17	=17
*lig	*	*Xij	*Xij	*Xij	*Xij	*Xij	*Xij	*Xij	*Xij	*lig	*Xij	*Xij	*Xij	*Xij	*Xij	*Xij	*Xij	*	*	*Xij	*Xij	*Xij	*Xij	*Xij	*Xij	*Xij	*Xij	*	*	*	*	*
!	!	!	!	!	!	!	!	!	!	!	!	!	!	!	!	!	!	!	!LO:TX:t=P:problem:# above	!	!	!	!	!	!	!	!	!	!	!	!	!
1A	.	Mar-	do-	Cae-	re-	in-	o-	Thra-	e-	1c	Mar-	Do-	Cae-	re-	in-	o-	Thra-	e-	0f#X	Mar-	Do-	Cae-	re-	in-	o-	Thra-	e-	0e	Mar-	do-	re-	cae-
1.B	.	.	.	.	.	.	.	.	.	1.B	.	.	.	.	.	.	.	.	.	.	.	.	.	.	.	.	.	.	.	.	.	.
!	!	!	!	!	!	!	!	!	!	!	!	!	!	!	!	!	!	!	!	!	!	!	!	!	!	!	!	!LO:TX:t=P:problem:# above	!	!	!	!
.	.	.	.	.	.	.	.	.	.	.	.	.	.	.	.	.	.	.	1f#	-ty-	.	-li-	-cre-	-ſe-	-mi-	-ci-	-ru-	1d#X	-ty-	.	-cre-	-li-
!	!	!	!	!	!	!	!	!	!	!	!	!	!	!	!	!	!	!	!	!	!	!	!	!	!	!	!	!	!	!	!	!
*Xlig	*	*	*	*	*	*	*	*	*	*Xlig	*	*	*	*	*	*	*	*	*	*	*	*	*	*	*	*	*	*	*	*	*	*
2BB/	.	-ty-	.	-li-	-cre-	-ſê-	-mi-	-ci-	-ru-	2B\	-ty-	.	-li-	-cre-	-ſe-	-mi-	-ci-	-ru-	.	.	.	.	.	.	.	.	.	.	.	.	.	.
=18-	=18-	=18-	=18-	=18-	=18-	=18-	=18-	=18-	=18-	=18-	=18-	=18-	=18-	=18-	=18-	=18-	=18-	=18-	=18-	=18-	=18-	=18-	=18-	=18-	=18-	=18-	=18-	=18-	=18-	=18-	=18-	=18-
0.E;	.	-re(m)	-mus	-tu(m)	-ant	-rit	-ne	-os	-e	0.B;	-rem	-m(us)	-tu(m)	-ant	-rit	-ne	-os	-e	0.e;;	-rem	-mus	-tu(m)	-ant	-rit.	-ne	-os	-e	0.e;;	-rem	-m(us).	-ant	-tum
==	==	==	==	==	==	==	==	==	==	==	==	==	==	==	==	==	==	==	==	==	==	==	==	==	==	==	==	==	==	==	==	==
*-	*-	*-	*-	*-	*-	*-	*-	*-	*-	*-	*-	*-	*-	*-	*-	*-	*-	*-	*-	*-	*-	*-	*-	*-	*-	*-	*-	*-	*-	*-	*-	*-
!!!system-decoration: [(s1,s2,s3,s4)]
!!!ENC:Kamil Watkowski
!!!END:2021-03-25
!!!RDF**kern: > = above
!!!RDF**kern: < = below
!!!EED: Andrzej Borzym
!!!EST: 2021-04-05
